packages/core/src/svgs/ins.svg

<svg width="24" height="24" viewBox="0 0 24 24" fill="none" xmlns="http://www.w3.org/2000/svg">
<g clip-path="url(#clip0_31_11819)">
<path d="M0 0H24V24H0V0Z" fill="#F0F3FA"/>
<path d="M6.05566 17.5655V18.0014H6.49452L7.90924 16.4744V16.0381H7.47038L6.05566 17.5655Z" fill="url(#paint0_linear_31_11819)"/>
<path d="M10.1736 18.0013L10.8701 16.4619V16.0376H10.4171L9.72021 17.5775V18.0017H10.1736V18.0013Z" fill="url(#paint1_linear_31_11819)"/>
<path d="M18.0013 14.4225V13.9716L16.5197 13.1758H16.0933V13.6258L17.5748 14.4221L18.0013 14.4225Z" fill="url(#paint2_linear_31_11819)"/>
<path d="M18.0013 10.03V9.57959H17.5748L16.0933 10.3759V10.8259H16.5197L18.0013 10.03Z" fill="url(#paint3_linear_31_11819)"/>
<path d="M9.72064 6V6.42429L10.4175 7.96329H10.8705V7.539L10.1741 6H9.72064Z" fill="url(#paint4_linear_31_11819)"/>
<path d="M17.9473 6.43629V6H17.508L16.0938 7.52743V7.96329H16.5326L17.9473 6.43629Z" fill="url(#paint5_linear_31_11819)"/>
<path d="M13.7142 10.2856H13.2856V10.7142H13.7142V10.2856Z" fill="#BE5095"/>
<path d="M13.1328 16.0381V16.4624L13.8292 18.0014H14.2826V17.5771L13.5858 16.0385H13.1323L13.1328 16.0381Z" fill="url(#paint6_linear_31_11819)"/>
<path d="M14.2822 6H13.8292L13.1328 7.53943V7.96371H13.5858L14.2822 6.42429V6Z" fill="url(#paint7_linear_31_11819)"/>
<path d="M17.9472 18.0014V17.5655L16.5325 16.0381H16.0928V16.4744L17.5075 18.0014H17.9472Z" fill="url(#paint8_linear_31_11819)"/>
<path d="M6.00195 13.9716V14.4216H6.42838L7.90995 13.6258V13.1758H7.48352L6.00195 13.9712V13.9716Z" fill="url(#paint9_linear_31_11819)"/>
<path d="M6.05566 6V6.43629L7.46995 7.96329H7.90924V7.52743L6.49452 6H6.05566Z" fill="url(#paint10_linear_31_11819)"/>
<path d="M10.2856 13.7142H10.7142V13.2856H10.2856V13.7142Z" fill="#BD687B"/>
<path d="M6.00195 9.57959V10.0296L7.48352 10.8259H7.90995V10.3759L6.42838 9.57959H6.00195Z" fill="url(#paint11_linear_31_11819)"/>
<path d="M10.2856 10.7142H10.7142V10.2856H10.2856V10.7142Z" fill="#AC5E90"/>
<path d="M13.7142 13.2856H13.2856V13.7142H13.7142V13.2856Z" fill="#C85C7F"/>
</g>
<defs>
<linearGradient id="paint0_linear_31_11819" x1="7.90924" y1="16.0381" x2="5.94895" y2="17.8887" gradientUnits="userSpaceOnUse">
<stop stop-color="#C27E64"/>
<stop offset="1" stop-color="#CD8D56"/>
</linearGradient>
<linearGradient id="paint1_linear_31_11819" x1="10.6078" y1="16.038" x2="9.09921" y2="17.1823" gradientUnits="userSpaceOnUse">
<stop stop-color="#CB7365"/>
<stop offset="1" stop-color="#D57D56"/>
</linearGradient>
<linearGradient id="paint2_linear_31_11819" x1="16.0933" y1="13.1762" x2="17.316" y2="14.7602" gradientUnits="userSpaceOnUse">
<stop stop-color="#D75080"/>
<stop offset="1" stop-color="#E34B76"/>
</linearGradient>
<linearGradient id="paint3_linear_31_11819" x1="16.035" y1="10.6802" x2="17.289" y2="9.03616" gradientUnits="userSpaceOnUse">
<stop stop-color="#CF4794"/>
<stop offset="1" stop-color="#D739A3"/>
</linearGradient>
<linearGradient id="paint4_linear_31_11819" x1="9.72064" y1="6" x2="11.3308" y2="7.06714" gradientUnits="userSpaceOnUse">
<stop stop-color="#8554B2"/>
<stop offset="1" stop-color="#9C55A5"/>
</linearGradient>
<linearGradient id="paint5_linear_31_11819" x1="16.1289" y1="7.926" x2="18.0519" y2="6.111" gradientUnits="userSpaceOnUse">
<stop stop-color="#C43CAE"/>
<stop offset="1" stop-color="#CD2CC3"/>
</linearGradient>
<linearGradient id="paint6_linear_31_11819" x1="13.1555" y1="16.0865" x2="14.652" y2="17.1824" gradientUnits="userSpaceOnUse">
<stop stop-color="#D66766"/>
<stop offset="1" stop-color="#E26A55"/>
</linearGradient>
<linearGradient id="paint7_linear_31_11819" x1="13.1328" y1="7.96329" x2="14.6898" y2="6.858" gradientUnits="userSpaceOnUse">
<stop stop-color="#AD4AA9"/>
<stop offset="1" stop-color="#AD3EBB"/>
</linearGradient>
<linearGradient id="paint8_linear_31_11819" x1="16.0932" y1="16.0381" x2="18.0535" y2="17.8887" gradientUnits="userSpaceOnUse">
<stop stop-color="#E15A68"/>
<stop offset="1" stop-color="#EB5A55"/>
</linearGradient>
<linearGradient id="paint9_linear_31_11819" x1="7.90995" y1="13.1758" x2="6.67695" y2="14.7418" gradientUnits="userSpaceOnUse">
<stop stop-color="#AC757A"/>
<stop offset="1" stop-color="#AC8270"/>
</linearGradient>
<linearGradient id="paint10_linear_31_11819" x1="6.05566" y1="6" x2="8.00952" y2="7.84457" gradientUnits="userSpaceOnUse">
<stop stop-color="#6466AA"/>
<stop offset="1" stop-color="#8563A1"/>
</linearGradient>
<linearGradient id="paint11_linear_31_11819" x1="6.03024" y1="9.59545" x2="7.22724" y2="11.17" gradientUnits="userSpaceOnUse">
<stop stop-color="#857390"/>
<stop offset="1" stop-color="#986C8D"/>
</linearGradient>
<clipPath id="clip0_31_11819">
<rect width="24" height="24" fill="white"/>
</clipPath>
</defs>
</svg>

<svg xmlns="http://www.w3.org/2000/svg" width="24" height="24" fill="none" viewBox="0 0 24 24"><g clip-path="url(#a)"><path fill="#F0F3FA" d="M0 0h24v24H0z"/><path fill="url(#b)" d="M6.056 17.566V18h.439l1.414-1.527v-.436H7.47z"/><path fill="url(#c)" d="m10.174 18.001.696-1.54v-.423h-.453l-.697 1.54v.424z"/><path fill="url(#d)" d="M18.001 14.423v-.451l-1.481-.796h-.427v.45l1.482.796z"/><path fill="url(#e)" d="M18.001 10.03v-.45h-.426l-1.482.796v.45h.427z"/><path fill="url(#f)" d="M9.72 6v.424l.697 1.54h.454v-.425L10.174 6z"/><path fill="url(#g)" d="M17.947 6.436V6h-.439l-1.414 1.527v.436h.439z"/><path fill="#BE5095" d="M13.714 10.286h-.428v.428h.428z"/><path fill="url(#h)" d="M13.133 16.038v.424l.696 1.54h.454v-.425l-.697-1.539z"/><path fill="url(#i)" d="M14.282 6h-.453l-.696 1.54v.424h.453l.696-1.54z"/><path fill="url(#j)" d="M17.947 18.001v-.436l-1.415-1.527h-.44v.436l1.416 1.527z"/><path fill="url(#k)" d="M6.002 13.972v.45h.426l1.482-.796v-.45h-.426z"/><path fill="url(#l)" d="M6.056 6v.436L7.47 7.963h.44v-.436L6.494 6z"/><path fill="#BD687B" d="M10.286 13.714h.428v-.428h-.428z"/><path fill="url(#m)" d="M6.002 9.58v.45l1.482.796h.426v-.45L6.428 9.58z"/><path fill="#AC5E90" d="M10.286 10.714h.428v-.428h-.428z"/><path fill="#C85C7F" d="M13.714 13.286h-.428v.428h.428z"/></g><defs><linearGradient id="b" x1="7.909" x2="5.949" y1="16.038" y2="17.889" gradientUnits="userSpaceOnUse"><stop stop-color="#C27E64"/><stop offset="1" stop-color="#CD8D56"/></linearGradient><linearGradient id="c" x1="10.608" x2="9.099" y1="16.038" y2="17.182" gradientUnits="userSpaceOnUse"><stop stop-color="#CB7365"/><stop offset="1" stop-color="#D57D56"/></linearGradient><linearGradient id="d" x1="16.093" x2="17.316" y1="13.176" y2="14.76" gradientUnits="userSpaceOnUse"><stop stop-color="#D75080"/><stop offset="1" stop-color="#E34B76"/></linearGradient><linearGradient id="e" x1="16.035" x2="17.289" y1="10.68" y2="9.036" gradientUnits="userSpaceOnUse"><stop stop-color="#CF4794"/><stop offset="1" stop-color="#D739A3"/></linearGradient><linearGradient id="f" x1="9.721" x2="11.331" y1="6" y2="7.067" gradientUnits="userSpaceOnUse"><stop stop-color="#8554B2"/><stop offset="1" stop-color="#9C55A5"/></linearGradient><linearGradient id="g" x1="16.129" x2="18.052" y1="7.926" y2="6.111" gradientUnits="userSpaceOnUse"><stop stop-color="#C43CAE"/><stop offset="1" stop-color="#CD2CC3"/></linearGradient><linearGradient id="h" x1="13.155" x2="14.652" y1="16.087" y2="17.182" gradientUnits="userSpaceOnUse"><stop stop-color="#D66766"/><stop offset="1" stop-color="#E26A55"/></linearGradient><linearGradient id="i" x1="13.133" x2="14.69" y1="7.963" y2="6.858" gradientUnits="userSpaceOnUse"><stop stop-color="#AD4AA9"/><stop offset="1" stop-color="#AD3EBB"/></linearGradient><linearGradient id="j" x1="16.093" x2="18.053" y1="16.038" y2="17.889" gradientUnits="userSpaceOnUse"><stop stop-color="#E15A68"/><stop offset="1" stop-color="#EB5A55"/></linearGradient><linearGradient id="k" x1="7.91" x2="6.677" y1="13.176" y2="14.742" gradientUnits="userSpaceOnUse"><stop stop-color="#AC757A"/><stop offset="1" stop-color="#AC8270"/></linearGradient><linearGradient id="l" x1="6.056" x2="8.01" y1="6" y2="7.845" gradientUnits="userSpaceOnUse"><stop stop-color="#6466AA"/><stop offset="1" stop-color="#8563A1"/></linearGradient><linearGradient id="m" x1="6.03" x2="7.227" y1="9.595" y2="11.17" gradientUnits="userSpaceOnUse"><stop stop-color="#857390"/><stop offset="1" stop-color="#986C8D"/></linearGradient><clipPath id="a"><path fill="#fff" d="M0 0h24v24H0z"/></clipPath></defs></svg>
